flaticon/file-type/prelude.svg

<svg xmlns="http://www.w3.org/2000/svg" width="32" height="32" viewBox="0 0 24 24">
    <path d="M 18.589844 0 L 5.410156 0 C 2.425781 0 0 2.425781 0 5.410156 L 0 18.589844 C 0 21.574219 2.425781 24 5.410156 24 L 18.589844 24 C 21.574219 24 24 21.574219 24 18.589844 L 24 5.410156 C 24 2.425781 21.574219 0 18.589844 0 Z M 23.109375 18.589844 C 23.109375 21.082031 21.082031 23.109375 18.589844 23.109375 L 5.410156 23.109375 C 2.917969 23.109375 0.890625 21.082031 0.890625 18.589844 L 0.890625 5.410156 C 0.890625 2.917969 2.917969 0.890625 5.410156 0.890625 L 18.589844 0.890625 C 21.082031 0.890625 23.109375 2.917969 23.109375 5.410156 Z M 23.109375 18.589844"/>
    <path d="M10.542969 5.332031L6.257812 5.332031 6.257812 17.777344 7.539062 17.777344 7.539062 13.6875 10.667969 13.6875C11.269531 13.6875 11.792969 13.578125 12.230469 13.359375 12.667969 13.140625 12.996094 12.886719 13.207031 12.59375 13.421875 12.304688 13.589844 11.933594 13.714844 11.476562 13.839844 11.019531 13.914062 10.640625 13.9375 10.335938 13.960938 10.035156 13.972656 9.675781 13.972656 9.261719 13.972656 8.089844 13.691406 7.140625 13.128906 6.417969 12.566406 5.695312 11.703125 5.332031 10.542969 5.332031zM12.683594 10.042969C12.679688 10.222656 12.636719 10.488281 12.558594 10.84375 12.484375 11.199219 12.375 11.472656 12.238281 11.664062 12.105469 11.851562 11.886719 12.03125 11.589844 12.195312 11.292969 12.363281 10.933594 12.445312 10.507812 12.445312L7.539062 12.445312 7.539062 6.578125 10.4375 6.578125C11.941406 6.578125 12.695312 7.480469 12.695312 9.28125 12.695312 9.613281 12.691406 9.867188 12.683594 10.042969zM16.054688 5.332031L17.332031 5.332031 17.332031 17.777344 16.054688 17.777344zM16.054688 5.332031"/>
</svg>

<svg xmlns="http://www.w3.org/2000/svg" width="32" height="32" viewBox="0 0 24 24">
    <path d="M18.59 0H5.41A5.415 5.415 0 0 0 0 5.41v13.18A5.415 5.415 0 0 0 5.41 24h13.18A5.415 5.415 0 0 0 24 18.59V5.41A5.415 5.415 0 0 0 18.59 0zm4.52 18.59a4.525 4.525 0 0 1-4.52 4.52H5.41a4.525 4.525 0 0 1-4.52-4.52V5.41A4.525 4.525 0 0 1 5.41.89h13.18a4.525 4.525 0 0 1 4.52 4.52zm0 0"/>
    <path d="M10.543 5.332H6.258v12.445h1.281v-4.09h3.129c.602 0 1.125-.109 1.562-.328.438-.218.766-.472.977-.765.215-.29.383-.66.508-1.117.125-.457.2-.836.223-1.141.023-.3.035-.66.035-1.074 0-1.172-.282-2.121-.844-2.844-.563-.723-1.426-1.086-2.586-1.086zm2.14 4.711c-.003.18-.046.445-.124.8-.075.356-.184.63-.32.821-.134.188-.352.367-.65.531-.296.168-.655.25-1.081.25H7.539V6.578h2.899c1.503 0 2.257.902 2.257 2.703 0 .332-.004.586-.011.762zm0 0M16.055 5.332h1.277v12.445h-1.277zm0 0"/>
</svg>
